icons/ticket-divide-outline.svg

<svg xmlns="http://www.w3.org/2000/svg" width="24" height="24" viewBox="0 0 24 24">
  <path d="M20,4 C21.5976809,4 22.9036609,5.24891996 22.9949073,6.82372721 L23,7 L23,10 C23,10.5128358 22.6139598,10.9355072 22.1166211,10.9932723 L22,11 L21,11 C20.5160091,11 20.1084498,11.345492 20.0201061,11.7777443 L20.0048111,11.8874652 L20,12 C20,12.4839909 20.345492,12.8915502 20.7777443,12.9798939 L20.8874652,12.9951889 L21,13 L22,13 C22.5128358,13 22.9355072,13.3860402 22.9932723,13.8833789 L23,14 L23,17 C23,18.5976809 21.75108,19.9036609 20.1762728,19.9949073 L20,20 L4,20 C2.40231912,20 1.09633912,18.75108 1.00509269,17.1762728 L1,17 L1,14 C1,13.4871642 1.38604019,13.0644928 1.88337887,13.0067277 L2,13 L3,13 C3.48399089,13 3.89155023,12.654508 3.97989387,12.2222557 L3.99518895,12.1125348 L4,12 C4,11.5160091 3.65450803,11.1084498 3.22225569,11.0201061 L3.11253483,11.0048111 L3,11 L2,11 C1.48716416,11 1.06449284,10.6139598 1.00672773,10.1166211 L1,10 L1,7 C1,5.40231912 2.24891996,4.09633912 3.82372721,4.00509269 L4,4 L20,4 Z M20,6 L4,6 C3.48716416,6 3.06449284,6.38604019 3.00672773,6.88337887 L3,7 L3,9 L3.22283965,9.00819622 C4.72662758,9.1191416 5.90948567,10.3314443 5.99443951,11.8591043 L5.99932532,12.0367275 L5.99180378,12.2228396 C5.8808584,13.7266276 4.66855574,14.9094857 3.1736917,14.995042 L3,15 L3,17 C3,17.4733869 3.32893365,17.8699473 3.77070917,17.9735893 L3.88337887,17.9932723 L4,18 L20,18 C20.5128358,18 20.9355072,17.6139598 20.9932723,17.1166211 L21,17 L21,14.999 L20.7771604,14.9918038 C19.2733724,14.8808584 18.0905143,13.6685557 18.0055605,12.1408957 L18.0006747,11.9632725 L18.0081962,11.7771604 C18.1191416,10.2733724 19.3314443,9.09051433 20.8263083,9.00495803 L21,9 L21,7 C21,6.44771525 20.5522847,6 20,6 Z M12,14 C12.5522847,14 13,14.4477153 13,15 C13,15.5522847 12.5522847,16 12,16 C11.4477153,16 11,15.5522847 11,15 C11,14.4477153 11.4477153,14 12,14 Z M15,11 C15.5522847,11 16,11.4477153 16,12 C16,12.5128358 15.6139598,12.9355072 15.1166211,12.9932723 L15,13 L9,13 C8.44771525,13 8,12.5522847 8,12 C8,11.4871642 8.38604019,11.0644928 8.88337887,11.0067277 L9,11 L15,11 Z M12,8 C12.5522847,8 13,8.44771525 13,9 C13,9.55228475 12.5522847,10 12,10 C11.4477153,10 11,9.55228475 11,9 C11,8.44771525 11.4477153,8 12,8 Z"/>
</svg>

<svg xmlns="http://www.w3.org/2000/svg" viewBox="0 0 24 24">
  <path d="M20 4a3 3 0 0 1 3 2.82V10a1 1 0 0 1-.88 1H21a1 1 0 0 0-.98.78l-.02.1V12c0 .48.35.9.78.98l.1.02H22a1 1 0 0 1 1 .88V17a3 3 0 0 1-2.82 3H4a3 3 0 0 1-3-2.82V14a1 1 0 0 1 .88-1H3a1 1 0 0 0 .98-.78l.02-.1V12a1 1 0 0 0-.78-.98l-.1-.02H2a1 1 0 0 1-1-.88V7a3 3 0 0 1 2.82-3H20zm0 2H4a1 1 0 0 0-1 .88V9h.22A3 3 0 0 1 6 11.87v.36A3 3 0 0 1 3.17 15H3v2a1 1 0 0 0 .77.97l.11.02L4 18h16a1 1 0 0 0 1-.88V15h-.22A3 3 0 0 1 18 12.13v-.36A3 3 0 0 1 20.83 9H21V7a1 1 0 0 0-1-1zm-8 8a1 1 0 1 1 0 2 1 1 0 0 1 0-2zm3-3a1 1 0 0 1 .12 2H9a1 1 0 0 1-.12-2H15zm-3-3a1 1 0 1 1 0 2 1 1 0 0 1 0-2z"/>
</svg>
